X: 21218
T: Kauan Odetettu
R: waltz
M: 3/4
K: Eminor
"Em"g5|"B7"fa gf ed|"C"e4 c2|"G"B5|
"Am"AB cA Bc|"B7"Bc BA GF|"C"E4 E2|"D"F2 E2 F2|
"Em"g5|"B7"fa gf ed|"C"e4 c2|"G"B4 B2|
"Am"AB cA Bc|"B7"Bc BA GF|"C"E4 E2|"D"F2 E2 F2|
"Em"G4 G2|"Am" A2 G2 A2|"B7"B5|"C"B5|"D"B5|"B7"B5|
|:"Em"E2G2G2|"D"F3 G A2|"G"G3 A B2|"Am"A3 B c2|
"Em"B3 G E2|"D" F3 E D2|"C"C4 E2|"B7"B,4 B,2|
"Em"E2G2G2|"D"F3 G A2|"G"G3 A B2|"Am"A3 B c2|
"C"e4 g2|"D"f3 e d2|"Em"e5|e5:|

